img/footer-logo.svg

<svg width="50" height="50" viewBox="0 0 50 50" fill="none" xmlns="http://www.w3.org/2000/svg">
<path fill-rule="evenodd" clip-rule="evenodd" d="M25 50C38.8071 50 50 38.8071 50 25C50 11.1929 38.8071 0 25 0C11.1929 0 0 11.1929 0 25C0 38.8071 11.1929 50 25 50Z" fill="#4592FF"/>
<mask id="mask0" mask-type="alpha" maskUnits="userSpaceOnUse" x="0" y="0" width="50" height="50">
<path fill-rule="evenodd" clip-rule="evenodd" d="M25 50C38.8071 50 50 38.8071 50 25C50 11.1929 38.8071 0 25 0C11.1929 0 0 11.1929 0 25C0 38.8071 11.1929 50 25 50Z" fill="white"/>
</mask>
<g mask="url(#mask0)">
<path d="M1.92576 27.1313C2.56932 27.1313 3.14276 27.0246 3.64606 26.8112C4.15761 26.5978 4.58666 26.2982 4.93319 25.9124C5.27973 25.5267 5.54375 25.0588 5.72527 24.5089C5.91504 23.959 6.00993 23.3434 6.00993 22.6621V12H9.33914V22.6621C9.33914 23.7209 9.16587 24.7018 8.81934 25.6046C8.48105 26.4993 7.99013 27.275 7.34656 27.9316C6.71125 28.58 5.93567 29.0889 5.01982 29.4583C4.10398 29.8194 3.07263 30 1.92576 30C0.770641 30 -0.26484 29.8194 -1.18068 29.4583C-2.09653 29.0889 -2.87623 28.58 -3.5198 27.9316C-4.15511 27.275 -4.64604 26.4993 -4.99257 25.6046C-5.33086 24.7018 -5.5 23.7209 -5.5 22.6621V12H-2.17078V22.6498C-2.17078 23.3311 -2.08003 23.9466 -1.89851 24.4966C-1.70874 25.0465 -1.44059 25.5185 -1.09405 25.9124C-0.739264 26.2982 -0.31022 26.5978 0.193082 26.8112C0.704634 27.0246 1.28219 27.1313 1.92576 27.1313Z" fill="white"/>
<path d="M28.1805 12V29.803H26.4725C26.2085 29.803 25.9857 29.762 25.8042 29.6799C25.6309 29.5896 25.4618 29.4419 25.2968 29.2367L15.9527 17.368C16.0022 17.9097 16.027 18.4104 16.027 18.87V29.803H13.0938V12H14.8388C14.9791 12 15.0987 12.0082 15.1978 12.0246C15.305 12.0328 15.3958 12.0575 15.47 12.0985C15.5525 12.1313 15.6309 12.1847 15.7052 12.2586C15.7794 12.3242 15.8619 12.4145 15.9527 12.5294L25.3339 24.4473C25.3092 24.1601 25.2885 23.8769 25.272 23.5978C25.2555 23.3187 25.2473 23.0602 25.2473 22.8222V12H28.1805Z" fill="white"/>
<path d="M47.5 12L40.2723 29.803H37.2648L30.0371 12H32.7104C32.9991 12 33.2343 12.0698 33.4158 12.2093C33.5973 12.3488 33.7335 12.5294 33.8242 12.751L38.0445 23.6101C38.1848 23.9631 38.3168 24.3529 38.4406 24.7798C38.5726 25.1984 38.6964 25.6375 38.8119 26.0971C38.9109 25.6375 39.0181 25.1984 39.1336 24.7798C39.2492 24.3529 39.377 23.9631 39.5173 23.6101L43.7129 12.751C43.7789 12.5622 43.9068 12.3899 44.0965 12.2339C44.2945 12.078 44.5338 12 44.8144 12H47.5Z" fill="white"/>
</g>
</svg>

<svg width="50" height="50" fill="none" xmlns="http://www.w3.org/2000/svg"><path fill-rule="evenodd" clip-rule="evenodd" d="M25 50c13.807 0 25-11.193 25-25S38.807 0 25 0 0 11.193 0 25s11.193 25 25 25z" fill="#4592FF"/><mask id="prefix__a" mask-type="alpha" maskUnits="userSpaceOnUse" x="0" y="0" width="50" height="50"><path fill-rule="evenodd" clip-rule="evenodd" d="M25 50c13.807 0 25-11.193 25-25S38.807 0 25 0 0 11.193 0 25s11.193 25 25 25z" fill="#fff"/></mask><g mask="url(#prefix__a)" fill="#fff"><path d="M1.926 27.131c.643 0 1.217-.106 1.72-.32.512-.213.94-.513 1.287-.899.347-.385.61-.853.792-1.403.19-.55.285-1.166.285-1.847V12h3.33v10.662c0 1.059-.174 2.04-.52 2.943a6.633 6.633 0 0 1-1.473 2.327c-.636.648-1.411 1.157-2.327 1.526-.916.361-1.947.542-3.094.542-1.155 0-2.19-.18-3.107-.542a6.87 6.87 0 0 1-2.339-1.526 6.876 6.876 0 0 1-1.473-2.327c-.338-.903-.507-1.884-.507-2.943V12h3.33v10.65c0 .681.09 1.297.271 1.847.19.55.458 1.021.805 1.415.355.386.784.686 1.287.9.512.213 1.09.32 1.733.32zM28.18 12v17.803h-1.707c-.264 0-.487-.041-.669-.123a1.652 1.652 0 0 1-.507-.443l-9.344-11.869c.05.542.074 1.042.074 1.502v10.933h-2.933V12h1.745c.14 0 .26.008.359.025a.663.663 0 0 1 .272.073c.082.033.16.087.235.16.074.066.157.157.248.271l9.38 11.918c-.024-.287-.044-.57-.061-.85-.016-.278-.025-.537-.025-.775V12h2.933zM47.5 12l-7.228 17.803h-3.007L30.037 12h2.673c.29 0 .524.07.706.21.181.139.318.32.408.541l4.22 10.86c.14.352.273.742.397 1.169.132.418.255.857.37 1.317.1-.46.207-.899.323-1.317.115-.427.243-.817.383-1.17l4.196-10.859c.066-.189.194-.361.383-.517.199-.156.438-.234.718-.234H47.5z"/></g></svg>
